images/about/Group-1.svg

<svg width="54" height="56" viewBox="0 0 54 56" fill="none" xmlns="http://www.w3.org/2000/svg">
<path d="M53.536 22.0588C52.2159 14.971 48.2145 8.82121 42.2691 4.74236C36.3233 0.663193 29.1458 -0.85633 22.0584 0.463948C14.9696 1.78401 8.81951 5.78573 4.7411 11.7317C0.662788 17.6774 -0.856195 24.8561 0.463975 31.945C1.07875 35.2532 2.2808 38.3663 4.0384 41.2046C3.63689 45.1526 2.79051 48.7565 0.148657 53.2981C-0.0282569 53.6023 -0.0457326 53.9738 0.101948 54.2932C0.24952 54.6126 0.543802 54.8399 0.89008 54.9022C2.12621 55.1248 3.47001 55.2317 4.86893 55.2317C9.20667 55.2317 14.0675 54.2026 17.8388 52.3962C22.3409 54.0258 27.206 54.4219 31.9416 53.5403C39.0304 52.2203 45.1806 48.2185 49.2589 42.2726C53.3372 36.3269 54.8562 29.1481 53.536 22.0588ZM31.5466 51.4193C27.046 52.257 22.4184 51.8409 18.1644 50.2155C17.8804 50.1071 17.5637 50.1234 17.2922 50.2606C13.1997 52.3318 7.35706 53.397 2.7891 52.9813C5.23861 48.3117 5.89589 44.4914 6.22189 41.0443C6.24444 40.805 6.18651 40.5648 6.05706 40.3622C4.34023 37.6738 3.17206 34.7093 2.58501 31.5504C0.077676 18.0859 8.9906 5.09209 22.4535 2.58498C28.9738 1.37053 35.578 2.76837 41.0485 6.52132C46.5188 10.2743 50.2003 15.9326 51.415 22.4539C53.9223 35.9183 45.0094 48.9123 31.5466 51.4193Z" fill="#CB8734"/>
<path d="M20.9412 37.2602H24.3964C24.9921 37.2602 25.4752 36.7772 25.4752 36.1815V31.5061C25.4752 30.9104 24.9921 30.4273 24.3964 30.4273H20.9412C20.5696 30.4273 20.2556 30.1134 20.2556 29.7418V27.7199H22.7789C24.2657 27.7199 25.4753 26.5103 25.4753 25.0236V19.44C25.4753 17.9533 24.2657 16.7437 22.7789 16.7437H16.1193C14.6326 16.7437 13.423 17.9533 13.423 19.44V29.7418C13.4228 33.8875 16.7956 37.2602 20.9412 37.2602ZM15.5803 19.44C15.5803 19.1479 15.827 18.9011 16.1191 18.9011H22.7787C23.0708 18.9011 23.3176 19.1479 23.3176 19.44V25.0236C23.3176 25.3157 23.0708 25.5624 22.7787 25.5624H19.1767C18.581 25.5624 18.0979 26.0455 18.0979 26.6411V29.7418C18.0979 31.3094 19.3733 32.5848 20.941 32.5848H23.3175V35.1027H20.941C17.985 35.1027 15.5801 32.6978 15.5801 29.7418V19.44H15.5803Z" fill="#CB8734"/>
<path d="M37.881 27.7199C39.3677 27.7199 40.5773 26.5103 40.5773 25.0236V19.44C40.5773 17.9533 39.3677 16.7437 37.881 16.7437H31.2213C29.7329 16.7437 28.522 17.9533 28.522 19.44V29.7418C28.522 33.8875 31.8961 37.2602 36.0434 37.2602H39.4986C40.0943 37.2602 40.5774 36.7772 40.5774 36.1815V31.5061C40.5774 30.9104 40.0943 30.4273 39.4986 30.4273H36.0434C35.6702 30.4273 35.3548 30.1134 35.3548 29.7418V27.7199H37.881ZM36.0433 32.5849H38.4198V35.1028H36.0433C33.0856 35.1028 30.6794 32.6979 30.6794 29.7419V19.4401C30.6794 19.148 30.9276 18.9013 31.2212 18.9013H37.8808C38.173 18.9013 38.4197 19.148 38.4197 19.4401V25.0237C38.4197 25.3158 38.173 25.5625 37.8808 25.5625H34.2758C33.6801 25.5625 33.197 26.0456 33.197 26.6413V29.7419C33.1972 31.3094 34.474 32.5849 36.0433 32.5849Z" fill="#CB8734"/>
<path d="M12.3091 13.3877C12.5853 13.3877 12.8612 13.2823 13.0719 13.0717L13.0749 13.0687C13.4962 12.6475 13.4947 11.9659 13.0733 11.5447C12.6519 11.1234 11.9675 11.1249 11.5462 11.5462C11.125 11.9674 11.125 12.6505 11.5462 13.0719C11.757 13.2824 12.0331 13.3877 12.3091 13.3877Z" fill="#CB8734"/>
<path d="M29.4338 5.28211C24.6077 4.74424 19.685 5.84079 15.5724 8.36926C15.0649 8.68134 14.9064 9.34574 15.2185 9.85319C15.5306 10.3608 16.195 10.5191 16.7024 10.2071C24.4893 5.41943 34.451 6.59775 40.9281 13.0722C48.6089 20.7532 48.6089 33.2512 40.9283 40.9321C33.2467 48.6107 20.7505 48.6108 13.0719 40.9322C6.59771 34.4578 5.41853 24.4941 10.2043 16.7024C10.516 16.1947 10.3572 15.5304 9.84959 15.2185C9.34204 14.9069 8.67775 15.0657 8.36578 15.5732C5.8386 19.6879 4.74291 24.6115 5.28045 29.4372C5.8345 34.4102 8.00116 38.9127 11.5462 42.4579C15.8065 46.7182 21.4015 48.8481 26.9987 48.8476C32.5945 48.8471 38.1927 46.7172 42.4536 42.4579C46.5822 38.3292 48.856 32.8402 48.856 27.0022C48.856 21.1644 46.5823 15.6754 42.4534 11.5466C38.9586 8.05287 34.3348 5.82817 29.4338 5.28211Z" fill="#CB8734"/>
</svg>

<svg width="54" height="56" fill="none" xmlns="http://www.w3.org/2000/svg"><path d="M53.536 22.059C52.216 14.97 48.214 8.82 42.269 4.742 36.323.663 29.146-.856 22.06.464c-7.09 1.32-13.24 5.322-17.318 11.268C.663 17.677-.856 24.856.464 31.945a26.814 26.814 0 0 0 3.574 9.26c-.401 3.948-1.247 7.552-3.89 12.093a1.079 1.079 0 0 0 .742 1.604c1.236.223 2.58.33 3.979.33 4.338 0 9.198-1.03 12.97-2.836a26.934 26.934 0 0 0 14.103 1.144c7.088-1.32 13.239-5.322 17.317-11.267 4.078-5.946 5.597-13.125 4.277-20.214zm-21.99 29.36c-4.5.838-9.128.422-13.382-1.203a1.08 1.08 0 0 0-.872.045C13.2 52.33 7.357 53.397 2.79 52.98c2.45-4.67 3.107-8.49 3.433-11.937.022-.239-.035-.48-.165-.682a24.666 24.666 0 0 1-3.472-8.812C.078 18.086 8.991 5.092 22.453 2.585c6.52-1.214 13.125.183 18.595 3.936a24.675 24.675 0 0 1 10.367 15.933c2.507 13.464-6.406 26.458-19.868 28.965z" fill="#CB8734"/><path d="M20.941 37.26h3.455c.596 0 1.08-.483 1.08-1.078v-4.676c0-.596-.484-1.079-1.08-1.079h-3.455a.695.695 0 0 1-.685-.685V27.72h2.523a2.7 2.7 0 0 0 2.696-2.696V19.44a2.7 2.7 0 0 0-2.696-2.696h-6.66a2.7 2.7 0 0 0-2.696 2.696v10.302c0 4.146 3.373 7.518 7.518 7.518zm-5.36-17.82c0-.292.246-.539.538-.539h6.66c.292 0 .539.247.539.539v5.584a.546.546 0 0 1-.54.538h-3.601c-.596 0-1.08.483-1.08 1.08v3.1a2.846 2.846 0 0 0 2.844 2.843h2.377v2.518H20.94a5.367 5.367 0 0 1-5.36-5.361V19.44zM37.881 27.72a2.7 2.7 0 0 0 2.696-2.696V19.44a2.7 2.7 0 0 0-2.696-2.696h-6.66a2.7 2.7 0 0 0-2.699 2.696v10.302c0 4.146 3.374 7.518 7.521 7.518H39.5c.595 0 1.078-.483 1.078-1.078v-4.676c0-.596-.483-1.079-1.078-1.079h-3.456a.696.696 0 0 1-.688-.685V27.72h2.526zm-1.838 4.865h2.377v2.518h-2.377a5.368 5.368 0 0 1-5.364-5.361V19.44c0-.292.249-.539.542-.539h6.66c.292 0 .539.247.539.54v5.583a.546.546 0 0 1-.54.538h-3.604c-.596 0-1.079.484-1.079 1.08v3.1a2.848 2.848 0 0 0 2.846 2.843zM12.31 13.388c.275 0 .551-.106.762-.316l.003-.003a1.077 1.077 0 0 0-.002-1.524 1.08 1.08 0 0 0-1.527 1.527c.211.21.487.316.763.316z" fill="#CB8734"/><path d="M29.434 5.282A21.944 21.944 0 0 0 15.572 8.37a1.079 1.079 0 1 0 1.13 1.838c7.787-4.788 17.749-3.61 24.226 2.865 7.68 7.681 7.68 20.18 0 27.86-7.681 7.679-20.177 7.679-27.856 0-6.474-6.474-7.653-16.438-2.868-24.23a1.08 1.08 0 0 0-1.838-1.129A21.964 21.964 0 0 0 5.28 29.437c.554 4.973 2.721 9.476 6.266 13.02 4.26 4.261 9.855 6.391 15.453 6.39 5.595 0 11.194-2.13 15.455-6.39a21.715 21.715 0 0 0 6.402-15.455 21.715 21.715 0 0 0-6.403-15.455 21.919 21.919 0 0 0-13.02-6.265z" fill="#CB8734"/></svg>
